!!!COM: Felix Mendelssohn
!!!CNT: Deutsch
!!!TXO: Deutsch
!!!OTL: Jagdlied
!!!LYR: A. von Arnim and C. Brentano: Des Knaben Wunderhorn
!!!OPS: Op. 84
!!!ONM: No. 3
!!!ENC: Daniel Alt & Leigh VanHandel
!!!YOR: Sa2mmtliche Lieder fu2r eine Singstimme 
!!!YOR: Neu revidirt von Dr. L. Benda, Ausgabe fu2r mittlere Stimme
!!!YOR: Braunschweig. Henry Litolff's Verlag. Boston and New York: Arthur P. Schmidt.
!!!ODT: 1834/
**kern	**silbe
*staff1	*
=1-	=1
*clefG2	*
*k[f#c#g#d#]	*
*M6/8	*
2.r	.
=2	=2
2.r	.
=3	=3
2.r	.
=4	=4
2.r	.
=5	=5
4r	.
8r	.
4r	.
{8B	{Mit
=6	=6
4e	Lust
8e	tha2t
4g#	ich
8a	aus
=7	=7
[2.b	rei-
=8	=8
4.b]	|
8a	-ten
8r	.
8g#	durch
=9	=9
4f#	ei-
8a	-nen
8a	gru2-
8g#	|
8f#	-nen
=10	=10
4.e	Wald,
[4.B	|
=11	=11
2.B_	|
=12	=12
4.B]}	|}
4r	.
{8B	{dar
=13	=13
4e	in
8e	da
4g#	ho2rt'
8a	ich
=14	=14
[2.b	sin-
=15	=15
4.b]	|
8a	-gen
8r	.
8a	drei
=16	=16
4g#	Vo2g-
8ddn	-lein
8dd	wohl-
8cc#	|
8b	-ge-
=17	=17
4.a	-stalt.
[4.e	|
=18	=18
2.e_	|
=19	=19
4e]}	|}
8r	.
4r	.
{8cc#	{Und
=20	=20
4cc#	sind
8f#	es
4f#	nicht
8g#	drei
=21	=21
4a	Vo2-
8a	-ge-
4a	-lein,
8cc#	so
=22	=22
4cc#	sind's
8f#	drei
4f#	Fra2u-
8g#	-lein
=23	=23
4.a}	fein,}
4r	.
{8b	{soll
=24	=24
4e	mir
8e	die
4g#	Ein'
8a	nicht
=25	=25
[2.b	wer-
=26	=26
4.b]	|
4.a}	-den,}
=27	=27
4r	.
8r	.
4r	.
{8g#	{so
=28	=28
4f#	gint's
8a	das
8a	Le-
8g#	|
8f#	-ben
=29	=29
4.e	mein,
[4.B	|
=30	=30
2.B]}	|}
=31	=31
4r	.
8r	.
{4.b	{so
=32	=32
4.cc#	gilt's
4.b	das
=33	=33
4.ee	Le-
4.b	|
=34	=34
4.g#	|
4.f#	-ben
=35	=35
4.e}	mein.}
4r	.
8r	.
=36	=36
2.r	.
=37	=37
2.r	.
=38	=38
2.r	.
=39	=39
2.r	.
=40	=40
4r	.
8r	.
4r	.
{8B	{In's
=41	=41
4e	Ju-
8B	-bel-
4e	-horn
8g#	ich
=42	=42
[2.b	sto-
=43	=43
4.b]	|
8a	-sse,
8r	.
8g#	das
=44	=44
4f#	Fir-
8a	-ma-
8a	-ment
8g#	|
8f#	wird
=45	=45
4.e	klar,
[4.B	|
=46	=46
2.B_	|
=47	=47
4B]}	|}
8r	.
4r	.
{8B	{ich
=48	=48
4e	stei-
8B	-ge
4e	von
8g#	dem
=49	=49
[2.b	Ros-
=50	=50
4.b]	|
8a	-se
8r	.
8a	und
=51	=51
4g#	za2hl'
8ddn	die
8dd	Vo2-
8cc#	|
8b	-gel-
=52	=52
4.a	-schaar.
[4.e	|
=53	=53
2.e_	|
=54	=54
4e]}	|}
8r	.
4r	.
{8cc#	{Die
=55	=55
4cc#	Ein'
8f#	ist
4f#	schwarz-
8g#	-braun'
=56	=56
4.a	An-
8a	-ne,
8r	.
8cc#	die
=57	=57
4cc#	An-
8f#	-dre
4f#	Ba2r-
8g#	-be-
=58	=58
4a}	-lein,}
8r	.
4r	.
{8b	{die
=59	=59
4e	Dritt'
8B	hat
4e	kei-
8g#	-nen
=60	=60
[2.b	Na-
=61	=61
4.b]	|
4.a}	-men,}
=62	=62
4r	.
8r	.
4r	.
{8g#	{die
=63	=63
4f#	soll
8a	mein
8a	ei-
8g#	|
8f#	-gen
=64	=64
4.e	sein,
[4.B	|
=65	=65
4.B_	|
8B]}	|}
8r	.
{8B	{mein
=66	=66
4.b	ei-
4.b	-gen
=67	=67
[2.b	sein,
=68	=68
8b]}	|}
8r	.
8r	.
{4.b	{die
=69	=69
4.cc#	soll
4.b	mein
=70	=70
4.ee	ei-
4.b	|
=71	=71
4.g#	|
4.f#	-gen
=72	=72
4.e}	sein.}
4r	.
8r	.
==	==
*-	*-